packages/foundations/assets/icons/functional/images/layout/resize.svg

<svg xmlns="http://www.w3.org/2000/svg" width="32" height="32" fill="none"><path fill="#1A1C1F" fill-rule="evenodd" d="M8.22 2.111c-.993.267-1.795 1.073-2.122 2.132C6.005 4.542 6 4.885 6 10.4v5.84l.144.246c.167.284.316.394.649.483.433.116.907-.126 1.107-.567.093-.204.098-.501.1-5.895s.007-5.691.1-5.896a1.06 1.06 0 0 1 .636-.559c.138-.04 2.964-.052 9.397-.041l9.2.016.201.133c.119.079.254.24.333.397l.133.264v9.165c0 8.151-.009 9.186-.083 9.362a.98.98 0 0 1-.53.551c-.203.094-.487.099-5.894.101-5.394.002-5.691.007-5.895.1-.441.2-.683.674-.567 1.107.089.333.199.482.483.649l.246.144h11.68l.42-.13c.949-.293 1.645-.978 1.992-1.959l.148-.418V4.56l-.13-.42a3.04 3.04 0 0 0-2.113-2.032c-.459-.119-19.092-.117-19.537.003m8.482 5.927c-.069.013-.24.136-.382.273-.214.207-.264.292-.295.508-.082.55.246 1.036.775 1.149.165.036.953.059 2.016.059h1.744l-3.215 3.215c-2.973 2.973-3.221 3.235-3.294 3.477-.07.232-.07.294.001.538.09.309.399.637.653.693.082.018.175.04.207.05.032.009.176-.007.32-.037.254-.052.348-.14 3.501-3.287l3.24-3.234v1.775c0 1.159.022 1.86.062 2.019a1.01 1.01 0 0 0 1.139.74c.313-.047.691-.371.772-.662.075-.272.073-6.456-.003-6.657-.08-.214-.308-.441-.556-.556-.201-.093-.403-.098-3.387-.093-1.745.004-3.229.017-3.298.03M3.84 20.097c-.942.246-1.674 1.079-1.812 2.063-.071.508-.07 5.29.002 5.732.148.912.785 1.652 1.706 1.983.339.122.379.124 2.984.141 1.678.011 2.795-.003 3.067-.04 1.057-.142 1.862-.849 2.136-1.876.114-.431.112-5.755-.003-6.196-.243-.936-1.023-1.679-1.941-1.85-.17-.032-1.407-.053-3.04-.051-2.412.003-2.795.014-3.099.094m6.002 2.061.131.13v5.436l-.164.138-.164.138H4.326l-.15-.129-.149-.128-.015-2.693-.015-2.692.14-.166.139-.165h5.436z"/></svg>

<svg width="32" height="32" viewBox="0 0 32 32" fill="none" xmlns="http://www.w3.org/2000/svg"><path d="M8.220 2.111 C 7.227 2.378,6.425 3.184,6.098 4.243 C 6.005 4.542,6.000 4.885,6.000 10.400 L 6.000 16.240 6.144 16.486 C 6.311 16.770,6.460 16.880,6.793 16.969 C 7.226 17.085,7.700 16.843,7.900 16.402 C 7.993 16.198,7.998 15.901,8.000 10.507 C 8.002 5.113,8.007 4.816,8.100 4.611 C 8.219 4.350,8.470 4.129,8.736 4.052 C 8.874 4.012,11.700 4.000,18.133 4.011 L 27.333 4.027 27.534 4.160 C 27.653 4.239,27.788 4.400,27.867 4.557 L 28.000 4.821 28.000 13.986 C 28.000 22.137,27.991 23.172,27.917 23.348 C 27.807 23.611,27.645 23.780,27.387 23.899 C 27.184 23.993,26.900 23.998,21.493 24.000 C 16.099 24.002,15.802 24.007,15.598 24.100 C 15.157 24.300,14.915 24.774,15.031 25.207 C 15.120 25.540,15.230 25.689,15.514 25.856 L 15.760 26.000 21.600 26.000 L 27.440 26.000 27.860 25.870 C 28.809 25.577,29.505 24.892,29.852 23.911 L 30.000 23.493 30.000 14.027 L 30.000 4.560 29.870 4.140 C 29.564 3.150,28.750 2.367,27.757 2.108 C 27.298 1.989,8.665 1.991,8.220 2.111 M16.702 8.038 C 16.633 8.051,16.462 8.174,16.320 8.311 C 16.106 8.518,16.056 8.603,16.025 8.819 C 15.943 9.369,16.271 9.855,16.800 9.968 C 16.965 10.004,17.753 10.027,18.816 10.027 L 20.560 10.027 17.345 13.242 C 14.372 16.215,14.124 16.477,14.051 16.719 C 13.981 16.951,13.981 17.013,14.052 17.257 C 14.142 17.566,14.451 17.894,14.705 17.950 C 14.787 17.968,14.880 17.990,14.912 18.000 C 14.944 18.009,15.088 17.993,15.232 17.963 C 15.486 17.911,15.580 17.823,18.733 14.676 L 21.973 11.442 21.973 13.217 C 21.973 14.376,21.995 15.077,22.035 15.236 C 22.160 15.734,22.652 16.054,23.174 15.976 C 23.487 15.929,23.865 15.605,23.946 15.314 C 24.021 15.042,24.019 8.858,23.943 8.657 C 23.863 8.443,23.635 8.216,23.387 8.101 C 23.186 8.008,22.984 8.003,20.000 8.008 C 18.255 8.012,16.771 8.025,16.702 8.038 M3.840 20.097 C 2.898 20.343,2.166 21.176,2.028 22.160 C 1.957 22.668,1.958 27.450,2.030 27.892 C 2.178 28.804,2.815 29.544,3.736 29.875 C 4.075 29.997,4.115 29.999,6.720 30.016 C 8.398 30.027,9.515 30.013,9.787 29.976 C 10.844 29.834,11.649 29.127,11.923 28.100 C 12.037 27.669,12.035 22.345,11.920 21.904 C 11.677 20.968,10.897 20.225,9.979 20.054 C 9.809 20.022,8.572 20.001,6.939 20.003 C 4.527 20.006,4.144 20.017,3.840 20.097 M9.842 22.158 L 9.973 22.288 9.973 25.006 L 9.973 27.724 9.809 27.862 L 9.645 28.000 6.986 28.000 L 4.326 28.000 4.176 27.871 L 4.027 27.743 4.012 25.050 L 3.997 22.358 4.137 22.192 L 4.276 22.027 6.994 22.027 L 9.712 22.027 9.842 22.158 " fill="#1A1C1F" stroke="none" fill-rule="evenodd"></path></svg>
